!!!!SEGMENT: pl-sa--190-a-v-20--005_pych-leopold--missa-in-d-sanctus.krn
!!!cenid: 17xx:1577
!!!COM: Pych, Leopold
!!!COM-rismID: pe30018039
!!!CDT: <1758->1774
!!!CNT:
!!!OPR: Missa in D
!!!OTL: Sanctus
!!!OMV: 005
!!!PDT:
!!!AGN: Sacred; Mass
!!!SMS-siglum: PL-SA
!!!SMS-shelfmark: 190/A V 20
!!!SMS-shelfwork: 001-005 M
!!!SMS-variant:
!!!SMS-altvar:
!!!NIFC-rismSourceID: 1001035913
!!!NIFC-islandoraID:
!!!URL-pdf-islandora:
!!!URL-scan: https://bc.bdsandomierz.pl/dlibra/publication/1527/edition/1495/content @EN{Scan on Cyfrowa Biblioteka Diecezjalna w Sandomierzu} @PL{Skany w portalu Cyfrowa Biblioteka Diecezjalna w Sandomierzu}
!!!ONB-nifc: UWAGA: części Mszy: 1. Sinfonia, 2. Kyrie, 3. Gloria, 4. Credo, 5. Sanctus, 6. Osanna, 7. Benedictus, 8. Agnus Dei, 9. Dona nobis
!!!AIN: 1 alto 1 bass 2 cor 1 organ 1 soprn 1 tenor 2 violn
!!!key: D
**kern	**fba	**dynam	**kern	**kern	**kern	**text	**kern	**text	**kern	**text	**kern	**kern	**dynam	**kern	**dynam
*part9	*	*part9	*part8	*part7	*part6	*part6	*part5	*part5	*part4	*part4	*part3	*part2	*part2	*part1	*part1
*group4	*	*	*group3	*group3	*group2	*group2	*group2	*group2	*group2	*group2	*group2	*group1	*	*group1	*
*staff9	*	*	*staff8	*staff7	*staff6	*staff6	*staff5	*staff5	*staff4	*staff4	*staff3	*staff2	*	*staff1	*
*I"Fundamento	*	*	*I"Violino 2do:	*I"Violino Primo:	*I"Baſso	*	*I"Tenore.	*	*I"Alto	*	*I"Canto	*I"Cornu 2do Ex D:	*	*I"Cornu Primo Ex D#	*
*I'bc	*	*	*I'vl 2	*I'vl 1	*I'B	*	*I'T	*	*I'A	*	*I'S	*I'cor 2	*	*I'cor 1	*
*Iorgan	*	*	*Ivioln	*Ivioln	*Ibass	*	*Itenor	*	*Ialto	*	*Isoprn	*Icor	*	*Icor	*
*ICklav	*	*	*ICstr	*ICstr	*ICvox	*	*ICvox	*	*ICvox	*	*ICvox	*ICbras	*	*ICbras	*
*clefF4	*	*	*clefG2	*clefG2	*clefF4	*	*clefC4	*	*clefC3	*	*clefC1	*clefG2	*	*clefG2	*
*	*	*	*	*	*	*	*	*	*	*	*	*ITrd-1c-2	*	*ITrd-1c-2	*
*k[f#c#]	*	*	*k[f#c#]	*k[f#c#]	*k[f#c#]	*	*k[c#f#]	*	*k[f#c#]	*	*k[f#c#]	*k[f#c#]	*	*k[f#c#]	*
*D:	*	*	*D:	*D:	*D:	*	*D:	*	*D:	*	*D:	*D:	*	*D:	*
*M4/4	*	*	*M4/4	*M4/4	*M4/4	*	*M4/4	*	*M4/4	*	*M4/4	*M4/4	*	*M4/4	*
*met(c)	*	*	*met(c)	*met(c)	*met(c)	*	*met(c)	*	*met(c)	*	*met(c)	*met(c)	*	*met(c)	*
=1	=1	=1	=1	=1	=1	=1	=1	=1	=1	=1	=1	=1	=1	=1	=1
*2\right	*	*2\right	*2\right	*2\right	*2\right	*2\right	*2\right	*2\right	*2\right	*2\right	*2\right	*2\right	*2\right	*2\right	*2\right
!!LO:TX:t=P:problem:all\right:global
!!LO:TX:t=P:problem:oznaczenie metryczne C z kropką
!LO:TX:a:t=tut	!	!	!	!	!	!	!	!	!LO:SIC:v:t=lub 2a	!	!	!	!	!	!
!LO:TX:a:B:t=adagio	!	!	!LO:TX:a:B:t=adagio	!LO:TX:a:B:t=adagio	!LO:TX:a:B:t=adagio	!	!	!	!LO:TX:a:B:t=adagio	!	!LO:TX:t=P:problem=zgodnie z RISM "S part missing"	!LO:TX:a:B:t=adagio	!	!	!
2D\	.	.	2ff#\	2ddd\	2D/	San-	2d\	San-	2b\	San-	1ryy	2dd\	.	2ff#\	.
!	!	!	!	!LO:N:vis=32.	!	!	!	!	!	!	!	!	!	!	!
4D\	.	.	16.ff#\LL	(16.ddd\LL	4D/	-ctus	4d\	-ctus	4a\	-ctus	.	4dd\	.	4ff#\	.
!	!	!	!	!LO:N:vis=16	!	!	!	!	!	!	!	!	!	!	!
.	.	.	32aa\JJk	32aa\JJk)	.	.	.	.	.	.	.	.	.	.	.
.	.	.	16.ff#\LL	16.ff#\LL	.	.	.	.	.	.	.	.	.	.	.
.	.	.	32dd\JJk	32dd\JJk	.	.	.	.	.	.	.	.	.	.	.
4r	.	.	16.a/LL	16.a/LL	4r	.	4r	.	4r	.	.	4r	.	4r	.
.	.	.	32f#/JJk	32f#/JJk	.	.	.	.	.	.	.	.	.	.	.
!	!	!	!LO:TX:t=P:problem=mixed beam	!LO:N:vis=32.	!	!	!	!	!	!	!	!	!	!	!
.	.	.	16.d/LL	16.d/LL	.	.	.	.	.	.	.	.	.	.	.
!	!	!	!	!LO:N:vis=16	!	!	!	!	!	!	!	!	!	!	!
.	.	.	32dd\JJk	32f#/JJk	.	.	.	.	.	.	.	.	.	.	.
=2	=2	=2	=2	=2	=2	=2	=2	=2	=2	=2	=2	=2	=2	=2	=2
*	*	*	*	*	*	*ij	*	*ij	*	*ij	*	*	*	*	*
!	!	!	!LO:TX:t=P:global:problem=niejednoznaczny zapis ozdobnika [przyjęto mordent górny]	!	!	!	!	!	!	!	!	!	!	!	!
2A\	.	.	2cc#m\	2ee\	2A\	San-	2c#\	San-	2a\	San-	1ryy	2a/	.	2ee\	.
!	!	!	!LO:TX:t=P:problem=mixed beam	!LO:TX:t=P:problem=mixed beam	!	!	!	!	!	!	!	!	!	!	!
4A\	.	.	16.cc#\LL	16.ee\LL	4A\	-ctus	4c#\	-ctus	4a\	-ctus	.	4a/	.	4ee\	.
.	.	.	32A/JJk	32A/JJk	.	.	.	.	.	.	.	.	.	.	.
.	.	.	16.c#/LL	16.c#/LL	.	.	.	.	.	.	.	.	.	.	.
.	.	.	32e/JJk	32e/JJk	.	.	.	.	.	.	.	.	.	.	.
4r	.	.	16.a/LL	16.a\LL	4r	.	4r	.	4r	.	.	4r	.	4r	.
.	.	.	32a/JJk	32cc#\JJk	.	.	.	.	.	.	.	.	.	.	.
.	.	.	16.cc#\LL	16.ee\LL	.	.	.	.	.	.	.	.	.	.	.
.	.	.	32ee\JJk	32aa\JJk	.	.	.	.	.	.	.	.	.	.	.
=3	=3	=3	=3	=3	=3	=3	=3	=3	=3	=3	=3	=3	=3	=3	=3
!	!	!	!	!	!	!	!	!	!	!	!	!	!	!LO:TX:t=P:global:problem=niejednoznaczny zapis ozdobnika [przyjęto mordent górny]	!
2G\	6 4 2	.	16.a#X/LL	16.ccc#\LL	2G\	San-	2c#\	San-	2a#X\	San-	1ryy	2ee\	.	2gg#Xm\	.
.	.	.	32cc#/K	32ee\K	.	.	.	.	.	.	.	.	.	.	.
.	.	.	16.cc#/	16.ee\	.	.	.	.	.	.	.	.	.	.	.
.	.	.	32cc#/JJk	32ee\JJk	.	.	.	.	.	.	.	.	.	.	.
.	.	.	16.cc#\LL	16.ee\LL	.	.	.	.	.	.	.	.	.	.	.
.	.	.	32cc#\K	32ee\JJk	.	.	.	.	.	.	.	.	.	.	.
.	.	.	16.cc#\	16.ee\LL	.	.	.	.	.	.	.	.	.	.	.
.	.	.	[<32cc#\JJk	[<32ee\JJk	.	.	.	.	.	.	.	.	.	.	.
!	!	!	!LO:LB:g=original	!LO:LB:g=original	!	!	!	!	!	!	!	!	!	!	!
!	!	!	!LO:TX:t=P:problem=brak zakończenia ligatury	!LO:TX:t=P:problem=brak zakończenia łuku	!	!	!	!	!	!	!	!	!	!LO:SIC:v:s=4aa#\	!
4F#\	x 2 #	.	16.cc#/LL]	16.ee\LL]	4F#\	-tus	4c#\	-ctus	4a#\	-ctus	.	4ff#\	.	4aa\	.
*	*	*	*	*	*	*Xij	*	*Xij	*	*Xij	*	*	*	*	*
.	.	.	32f#/JJk	32a#X\JJk	.	.	.	.	.	.	.	.	.	.	.
.	.	.	16.a#X/LL	16.cc#\LL	.	.	.	.	.	.	.	.	.	.	.
.	.	.	32cc#/JJk	32ee\JJk	.	.	.	.	.	.	.	.	.	.	.
4r	.	.	16.ee\LL	16.aa#X\LL	4r	.	4r	.	4r	.	.	4r	.	4r	.
.	.	.	32a#X\JJk	32ccc#\JJk	.	.	.	.	.	.	.	.	.	.	.
.	.	.	16.cc#\LL	16.aa#\LL	.	.	.	.	.	.	.	.	.	.	.
.	.	.	32a#X\JJk	32ee\JJk	.	.	.	.	.	.	.	.	.	.	.
=4	=4	=4	=4	=4	=4	=4	=4	=4	=4	=4	=4	=4	=4	=4	=4
!LO:TX:t=P:problem=mixed beam	!	!	!	!	!	!	!	!	!	!	!	!	!	!	!
16.BB/LL	.	.	4b\	4dd\	4B\	Do-	4B\	Do-	4f#\	Do-	1ryy	8r	.	8r	.
32B\JJk	.	.	.	.	.	.	.	.	.	.	.	.	.	.	.
16.B\LL	.	.	.	.	.	.	.	.	.	.	.	8dd\L	.	8ff#\L	.
32B\JJk	.	.	.	.	.	.	.	.	.	.	.	.	.	.	.
16.B\LL	x x 6	.	2dd\	4ff#\	8B\	-mi-	8B\	-mi-	8f#\	-mi-	.	8dd\	.	8ff#\	.
32d\JJk	.	.	.	.	.	.	.	.	.	.	.	.	.	.	.
!LO:TX:t=P:problem=mixed beam	!	!	!	!	!	!	!	!	!	!	!	!	!	!	!
16.B\LL	.	.	.	.	8B\	-n(us)	8B\	-nus	8f#\	-n(us)	.	8dd\J	.	8ff#\J	.
32BB/JJk	.	.	.	.	.	.	.	.	.	.	.	.	.	.	.
16.E\LL	x x 2	.	.	[2gg\	4e\	De-	4B\	De-	[2g\	De-	.	4dd\	.	4gg\	.
32e\K	.	.	.	.	.	.	.	.	.	.	.	.	.	.	.
!LO:N:vis=16	!	!	!	!	!	!	!	!	!	!	!	!	!	!	!
16.e\	.	.	.	.	.	.	.	.	.	.	.	.	.	.	.
32e\JJk	.	.	.	.	.	.	.	.	.	.	.	.	.	.	.
!LO:N:vis=16	!	!	!	!	!	!	!	!	!	!	!	!	!	!	!
16.e\LL	x x 8	.	8ee\L	.	4e\	-us	4B\	-us	.	.	.	4r	.	4r	.
32g\K	.	.	.	.	.	.	.	.	.	.	.	.	.	.	.
!LO:N:vis=16	!	!	!	!	!	!	!	!	!	!	!	!	!	!	!
16.e\	x x 2	.	8dd\J	.	.	.	.	.	.	.	.	.	.	.	.
32E\JJk	.	.	.	.	.	.	.	.	.	.	.	.	.	.	.
!LO:LB:g=original	!	!	!	!	!	!	!	!	!	!	!	!	!	!	!
=5	=5	=5	=5	=5	=5	=5	=5	=5	=5	=5	=5	=5	=5	=5	=5
!LO:TX:t=P:problem=mixed beam	!	!	!	!	!	!	!	!	!	!	!	!	!	!	!
16.AA/LL	x x 2_	.	[2cc#\	4gg\]	2A\	ſa-	2A/	Sa-	4g\]	.	1ryy	4ee\	.	4gg\	.
32A\JJk	x 8 _	.	.	.	.	.	.	.	.	.	.	.	.	.	.
16.A\LL	.	.	.	.	.	.	.	.	.	.	.	.	.	.	.
32A\JJk	.	.	.	.	.	.	.	.	.	.	.	.	.	.	.
16.A\LL	x 8 _	.	.	8aa\L	.	.	.	.	8a\L	-us	.	4r	.	4r	.
32c#\JJk	.	.	.	.	.	.	.	.	.	.	.	.	.	.	.
!LO:TX:t=P:problem=mixed beam	!	!	!	!	!	!	!	!	!	!	!	!	!	!	!
16.A\LL	x x 2	.	.	8gg\J	.	.	.	.	8g\J	.	.	.	.	.	.
32AA/JJk	.	.	.	.	.	.	.	.	.	.	.	.	.	.	.
16.D\LL	x x 2	.	4cc#\]	[2ff#\	2D/	.	2A/	.	[2f#\	ſa-	.	4dd\	.	4ff#\	.
32d\JJk	.	.	.	.	.	.	.	.	.	.	.	.	.	.	.
16.d\LL	.	.	.	.	.	.	.	.	.	.	.	.	.	.	.
32d\JJk	.	.	.	.	.	.	.	.	.	.	.	.	.	.	.
16.d\LL	x x 8	.	8dd\L	.	.	.	.	.	.	.	.	4r	.	4r	.
32f#\JJk	.	.	.	.	.	.	.	.	.	.	.	.	.	.	.
!LO:TX:t=P:problem=mixed beam	!	!	!	!	!	!	!	!	!	!	!	!	!	!	!
16.d\LL	x x 2	.	8cc#\J	.	.	.	.	.	.	.	.	.	.	.	.
32D/JJk	.	.	.	.	.	.	.	.	.	.	.	.	.	.	.
!	!	!	!	!	!LO:LB:g=original	!	!LO:LB:g=original	!	!LO:LB:g=original	!	!	!LO:LB:g=original	!	!	!
=6	=6	=6	=6	=6	=6	=6	=6	=6	=6	=6	=6	=6	=6	=6	=6
!LO:TX:t=P:problem=mixed beam	!	!	!	!	!	!	!	!	!LO:TX:t=P:problem=brak zakończenia ligatury	!	!	!	!	!	!
16.GG/LL	x x 2_	.	4.b/	4ff#\]	4.G\	.	4.G/	.	4f#\]	.	1ryy	4dd\	.	4ff#\	.
32G\JJk	.	.	.	.	.	.	.	.	.	.	.	.	.	.	.
16.G\LL	.	.	.	.	.	.	.	.	.	.	.	.	.	.	.
32G\JJk	.	.	.	.	.	.	.	.	.	.	.	.	.	.	.
16.G\LL	x x 6	.	.	8ee\L	.	.	.	.	4e\	-ba-	.	8ee\L	.	4ee\	.
32G\K	.	.	.	.	.	.	.	.	.	.	.	.	.	.	.
16.G\	x x 5	.	8b/	8dd\J	8G\	-ba-	8d\	-ba-	.	.	.	8dd\J	.	.	.
32G\JJk	.	.	.	.	.	.	.	.	.	.	.	.	.	.	.
2G;\	.	.	2e;;/	2cc#;;\	2G;\	-oth	2c#;\	-oth	2e;\	-oth	.	2a;/	.	2ee;\	.
!	!	!	!	!	!	!	!	!	!	!	!	!	!	!LO:LB:g=original	!
=7	=7	=7	=7	=7	=7	=7	=7	=7	=7	=7	=7	=7	=7	=7	=7
8C#/L	x x 6	.	16.A/LL	16.A/LL	4C#/	ſan-	4A\	San-	4a\	ſan-	1ryy	4a/	.	4ee\	.
.	.	.	32a/JJk	32a/JJk	.	.	.	.	.	.	.	.	.	.	.
8C#/	.	.	16.cc#\LL	16.cc#\LL	.	.	.	.	.	.	.	.	.	.	.
.	.	.	32ee\JJk	32ee\JJk	.	.	.	.	.	.	.	.	.	.	.
!	!	!	!LO:TX:t=P:problem=mixed beam	!	!	!	!	!	!	!	!	!	!	!	!
8C#/	.	.	16.aa\LL	16.aa\LL	4C#/	-ctus	4A\	-ctus	4a\	-ctus	.	8a/L	.	8ee\L	.
.	.	.	32a/JJk	32ccc#\JJk	.	.	.	.	.	.	.	.	.	.	.
8C#/J	.	.	16.cc#\LL	16.eee\LL	.	.	.	.	.	.	.	8a/J	.	8ee\J	.
.	.	.	32ee\JJk	32ggn\JJk	.	.	.	.	.	.	.	.	.	.	.
!	!	!	!	!LO:TX:t=P:problem=mixed beam	!	!	!	!	!	!	!	!	!	!	!
8D\L	x x 6	.	16.a/LL	16.ff#\LL	4D/	Do-	4d\	Do-	4a\	Do-	.	4dd\	.	4ff#\	.
.	.	.	32d/JJk	32d/JJk	.	.	.	.	.	.	.	.	.	.	.
!	!	!	!LO:SIC:v:s=16.f#/LL	!	!	!	!	!	!	!	!	!	!	!	!
8D\	.	.	16.g/LL	16.f#/LL	.	.	.	.	.	.	.	.	.	.	.
!	!	!	!LO:SIC:v:s=32a/JJk	!	!	!	!	!	!	!	!	!	!	!	!
.	.	.	32b/JJk	32a/JJk	.	.	.	.	.	.	.	.	.	.	.
8D\	.	.	16.dd\LL	16.dd\LL	8D/	-mi-	8d\	-mi-	8a\	-mi-	.	4dd\	.	4ff#\	.
!	!	!	!LO:SIC:v:s=16.f#\JJk	!	!	!	!	!	!	!	!	!	!	!	!
.	.	.	32g\JJk	32ff#\JJk	.	.	.	.	.	.	.	.	.	.	.
8D\J	.	.	16.ff#\LL	16.aa\LL	8D/	-n(us)	8d\	-n(us)	8a\	-n(us)	.	.	.	.	.
.	.	.	32ff#\JJk	32aaa\JJk	.	.	.	.	.	.	.	.	.	.	.
!	!	!	!LO:PB:g=original	!LO:LB:g=original	!	!	!	!	!	!	!	!	!	!	!
=8	=8	=8	=8	=8	=8	=8	=8	=8	=8	=8	=8	=8	=8	=8	=8
*	*	*	*	*	*	*ij	*	*	*	*	*	*	*	*	*
8D\L	x 4 2	.	16.b\LL	16.gg#X\LL	4D/	Do-	4.e\	De-	4b\	De-	1ryy	4.ee\	.	4gg#X\	.
.	.	.	32ee\JJk	32ee\JJk	.	.	.	.	.	.	.	.	.	.	.
8D\	.	.	16.gg#X\LL	16.bb\LL	.	.	.	.	.	.	.	.	.	.	.
.	.	.	32ee\JJk	32gg#\JJk	.	.	.	.	.	.	.	.	.	.	.
!	!	!	!LO:TX:t=P:problem=mixed beam	!LO:TX:t=P:problem=mixed beam	!	!	!	!	!	!	!	!	!	!	!
8C#\	x x 6	.	16.aa\LL	16.aa\LL	8C#/	-mi-	.	.	8cc#\L	-us	.	.	.	8aa\L	.
.	.	.	32a/JJk	32a/JJk	.	.	.	.	.	.	.	.	.	.	.
(<8D\J	.	.	16.dd\LL	16.ff#\LL	8D/	-nus	8f#\	-us	8b\J	.	.	8ff#\	.	8bb\J	.
*	*	*	*	*	*	*Xij	*	*	*	*	*	*	*	*	*
.	.	.	32b\JJk	32dd\JJk	.	.	.	.	.	.	.	.	.	.	.
!LO:LB:g=original	!	!	!	!	!	!	!	!	!	!	!	!	!	!	!
!LO:TX:t=P:problem=brak zakończenia łuku	!	!	!	!	!	!	!	!	!	!	!	!	!	!	!
!LO:TX:t=P:problem=mixed beam	!	!	!	!	!	!	!	!	!	!	!	!	!	!	!
8E\L)	x 6 4	.	4a/	4cc#\	4E\	De-	4e\	ſa-	4a\	ſa-	.	4ee\	.	4aa\	.
8E\	.	.	.	.	.	.	.	.	.	.	.	.	.	.	.
!	!	!	!	!LO:TX:t=P:global:problem=niejednoznaczny zapis ozdobnika [przyjęto mordent górny]	!	!	!	!	!	!	!	!LO:TX:t=P:global:problem=niejednoznaczny zapis ozdobnika [przyjęto mordent górny]	!	!	!
8EE/	x x #	.	4g#Xm/	4bM\	4E\	-us	4e\	-ba-	4g#X\	-ba-	.	4eeM\	.	4gg#Xm\	.
8EE/J	.	.	.	.	.	.	.	.	.	.	.	.	.	.	.
=9	=9	=9	=9	=9	=9	=9	=9	=9	=9	=9	=9	=9	=9	=9	=9
*	*	*	*	*	*	*ij	*	*	*	*	*	*	*	*	*
!	!	!	!	!	!LO:SIC:v:s=4A\	!	!	!	!	!	!	!	!	!	!
8AA/L	.	.	16.cc#\LL	16.a\LL	4G#X\	De-	4e\	-oth	4a\	-oth	1ryy	4ee\	.	4aa\	.
.	.	.	32ee\JJk	32ee\JJk	.	.	.	.	.	.	.	.	.	.	.
8AA/	.	.	16.cc#\LL	16.cc#\LL	.	.	.	.	.	.	.	.	.	.	.
.	.	.	32a\JJk	32a\JJk	.	.	.	.	.	.	.	.	.	.	.
!	!	!	!	!	!LO:SIC:v:s=4G#X\	!	!	!	!	!	!	!	!	!	!
8GG#X/	x x n2	.	4ddM\	4ffn\	4A\	-us	8d\	De-	8b\	De-	.	8r	.	8r	.
*	*	*	*	*	*	*Xij	*	*	*	*	*	*	*	*	*
8GG#/J	.	.	.	.	.	.	8d\	-us	8b\	-us	.	16.d/LL	.	16.d/LL	.
.	.	.	.	.	.	.	.	.	.	.	.	32d/JJk	.	32d/JJk	.
!	!	!	!LO:TX:t=P:problem=mixed beam	!LO:TX:t=P:problem=mixed beam	!	!	!	!	!	!	!	!	!	!	!
8AA/L	x x #	.	16.cc#\LL	16.ee\LL	4A\	ſa-	4c#\	ſa-	4a\	ſa-	.	4a/	.	4a/	.
.	.	.	32e/JJk	32e/JJk	.	.	.	.	.	.	.	.	.	.	.
8AA/	.	.	16.c#/LL	16.c#/LL	.	.	.	.	.	.	.	.	.	.	.
.	.	.	32A/JJk	32A/JJk	.	.	.	.	.	.	.	.	.	.	.
8GG#X/	x x n2	.	4d/	4fnM/	4G#X\	-ba-	4B\	-ba-	4fn\	-ba-	.	8r	.	8r	.
8GG#/J	.	.	.	.	.	.	.	.	.	.	.	16.d/LL	.	16.d/LL	.
.	.	.	.	.	.	.	.	.	.	.	.	32d/JJk	.	32d/JJk	.
!	!	!	!	!	!	!	!LO:LB:g=original	!	!	!	!	!	!	!	!
=10	=10	=10	=10	=10	=10	=10	=10	=10	=10	=10	=10	=10	=10	=10	=10
!	!	!	!	!LO:SIC:v:s=8qqfn/	!	!	!	!	!LO:SIC:v:s=(8qqfn/	!	!	!	!	!	!
.	.	.	(8qqd/	8qqf#/	.	.	.	.	(<8qqf#/	.	.	.	.	.	.
1AA;	.	.	1c#;)	1e;	1A	-oth	1A;	-oth	1e;)	-oth	1ryy	1A;	.	1A;	.
!	!	!	!	!	!LO:LB:g=original	!	!	!	!LO:LB:g=original	!	!	!LO:LB:g=original	!	!	!
=11||	=11||	=11||	=11||	=11||	=11||	=11||	=11||	=11||	=11||	=11||	=11||	=11||	=11||	=11||	=11||
*M3/4	*	*	*M3/4	*M3/4	*M3/4	*	*M3/4	*	*M3/4	*	*M3/4	*M3/4	*	*M3/4	*
!LO:TX:a:B:t=allo	!	!	!	!	!	!	!	!	!	!	!	!LO:TX:a:B:t=allo	!	!	!
8D\L	.	.	4ff#\	4aa\	4D/	Ple-	4d\	Ple-	4a\	Ple-	2.ryy	4dd\	.	4dd\	.
16E\L	.	.	.	.	.	.	.	.	.	.	.	.	.	.	.
16F#\JJ	.	.	.	.	.	.	.	.	.	.	.	.	.	.	.
16G\LL	.	.	4ff#\	4aa\	4D/	-ni	4d\	-ni	4a\	-ni	.	4dd\	.	4dd\	.
16A\	.	.	.	.	.	.	.	.	.	.	.	.	.	.	.
16B\	.	.	.	.	.	.	.	.	.	.	.	.	.	.	.
16c#\JJ	.	.	.	.	.	.	.	.	.	.	.	.	.	.	.
!LO:TX:t=P:problem=mixed beam	!	!	!	!	!	!	!	!	!	!	!	!	!	!	!
8d\L	.	.	4ff#\	4aa\	4D/	ſunt	4d\	sunt	4a\	ſunt	.	4dd\	.	4dd\	.
8D/J	.	.	.	.	.	.	.	.	.	.	.	.	.	.	.
=12	=12	=12	=12	=12	=12	=12	=12	=12	=12	=12	=12	=12	=12	=12	=12
8.G\L	.	.	4ggM\	4bbM\	4G\	Cae-	4d\	Cae-	4b\	Cae-	2.ryy	4dd\	.	4dd\	.
16B\Jk	.	.	.	.	.	.	.	.	.	.	.	.	.	.	.
8d\L	.	.	4ff#\	4aa\	4D\	-li	4d\	-li	4a\	-li	.	8r	.	8r	.
8D\	.	.	.	.	.	.	.	.	.	.	.	16dd\LL	.	16dd\LL	.
.	.	.	.	.	.	.	.	.	.	.	.	16dd\JJ	.	16dd\JJ	.
8G\	.	.	8r	8r	8r	.	8r	.	8r	.	.	8dd\L	.	8dd\L	.
8D\J	.	.	8ff#\	8aa\	8D\	et	8d\	et	8a\	et	.	8dd\J	.	8dd\J	.
!	!	!	!LO:LB:g=original	!	!	!	!	!	!	!	!	!	!	!LO:LB:g=original	!
=13	=13	=13	=13	=13	=13	=13	=13	=13	=13	=13	=13	=13	=13	=13	=13
8.G\L	.	.	4ggM\	4bb\	4G\	ter-	4d\	ter-	4b\	ter-	2.ryy	4dd\	.	4dd\	.
16B\Jk	.	.	.	.	.	.	.	.	.	.	.	.	.	.	.
8d\L	.	.	4ff#\	4aa\	4D\	-ra	4d\	-ra	4a\	-ra	.	8r	.	8r	.
8D\	.	.	.	.	.	.	.	.	.	.	.	16dd\LL	.	16dd\LL	.
.	.	.	.	.	.	.	.	.	.	.	.	16dd\JJ	.	16dd\JJ	.
8F#\	.	.	8r	8r	4r	.	4r	.	4r	.	.	8dd\L	.	8dd\L	.
8D\J	.	.	8ff#\	8aa\	.	.	.	.	.	.	.	8dd\J	.	8ff#\J	.
!LO:LB:g=original	!	!	!	!LO:LB:g=original	!	!	!	!	!	!	!	!	!	!	!
=14	=14	=14	=14	=14	=14	=14	=14	=14	=14	=14	=14	=14	=14	=14	=14
.	.	.	(<8qqff#/	.	.	.	.	.	.	.	.	.	.	.	.
4C#/	x 6 5	.	8ee\)	8gg\	4C#/	glo-	4A\	glo-	4g\	glo-	2.ryy	4ee\	.	4gg\	.
.	.	.	4ee\	4gg\	.	.	.	.	.	.	.	.	.	.	.
4AA/	x x 2	.	.	.	4AA/	-ri-	4A\	-ri-	4g\	-ri-	.	2eeM\	.	2ggM\	.
.	.	.	8cc#\L	16ee\LL	.	.	.	.	.	.	.	.	.	.	.
.	.	.	.	16cc#\JJ	.	.	.	.	.	.	.	.	.	.	.
4C#/	x 6 5	.	8a\	8a\L	4C#/	-a	4A\	-a	4g\	-a	.	.	.	.	.
.	.	.	8ee\J	8gg\J	.	.	.	.	.	.	.	.	.	.	.
=15	=15	=15	=15	=15	=15	=15	=15	=15	=15	=15	=15	=15	=15	=15	=15
4D\	.	.	8dd\L	16ff#\LL	4D/	tu-	4A\	tu-	4f#\	tu-	2.ryy	4dd\	.	4ff#\	.
.	.	.	.	16dd\	.	.	.	.	.	.	.	.	.	.	.
.	.	.	16ee\L	16ee\	.	.	.	.	.	.	.	.	.	.	.
.	.	.	16ff#\JJ	16ff#\JJ	.	.	.	.	.	.	.	.	.	.	.
4DD/	.	.	16gg\LL	16gg\LL	4D/	-a	4A\	-a	4f#\	-a	.	4r	.	4r	.
.	.	.	16aa\	16aa\	.	.	.	.	.	.	.	.	.	.	.
.	.	.	16bb\	16bb\	.	.	.	.	.	.	.	.	.	.	.
.	.	.	16ccc#\JJ	16ccc#\JJ	.	.	.	.	.	.	.	.	.	.	.
4F#\	x x 6	.	8ddd\L	8ddd\L	4r	.	4r	.	4r	.	.	4r	.	4r	.
.	.	.	[<8aa\J	[<8aa\J	.	.	.	.	.	.	.	.	.	.	.
!	!	!	!	!	!	!	!LO:LB:g=original	!	!	!	!	!	!	!	!
=16	=16	=16	=16	=16	=16	=16	=16	=16	=16	=16	=16	=16	=16	=16	=16
(8.G\L	x x 9	.	8aa\L]	8aa\L]	4G\	ple-	4B\	ple-	4a\	ple-	2.ryy	4r	.	4r	.
.	.	.	16gg\L	16gg\L	.	.	.	.	.	.	.	.	.	.	.
32A\LL	.	.	16ff#\JJ	16ff#\JJ	.	.	.	.	.	.	.	.	.	.	.
32B\JJJ)	.	.	.	.	.	.	.	.	.	.	.	.	.	.	.
8E\L	x 6 5_	.	8gg\	8gg\	4E\	-ni	4B\	-ni	4g\	-ni	.	4gg\	.	4bb\	.
8G\	.	.	4ee\	4ee\	.	.	.	.	.	.	.	.	.	.	.
8C#\	.	.	.	.	4C#\	ſunt	4B\	ſunt	4g\	ſunt	.	4gg\	.	4bb\	.
8E\J	.	.	[<8cc#\	[<8cc#\	.	.	.	.	.	.	.	.	.	.	.
!	!	!	!	!	!	!	!	!	!LO:LB:g=original	!	!	!	!	!	!
=17	=17	=17	=17	=17	=17	=17	=17	=17	=17	=17	=17	=17	=17	=17	=17
(8.F#\L	x x 9	.	16cc#\LL]	16cc#\LL]	4F#\	Cae-	4A\	Cae-	4g\	Cae-	2.ryy	4r	.	4r	.
.	.	.	16gg\	16gg\	.	.	.	.	.	.	.	.	.	.	.
.	.	.	16ff#\	16ff#\	.	.	.	.	.	.	.	.	.	.	.
32G\LL	.	.	16ee\JJ	16ee\JJ	.	.	.	.	.	.	.	.	.	.	.
32A\JJJ)	.	.	.	.	.	.	.	.	.	.	.	.	.	.	.
8D\L	x 6 5_	.	8ff#\	8ff#\	4D\	-li	4A\	-li	4f#\	-li	.	4ff#\	.	4aa\	.
8F#\	.	.	4cc#\	4cc#\	.	.	.	.	.	.	.	.	.	.	.
8BB\	.	.	.	.	4BB\	et	4A\	et	4f#\	et	.	4ff#\	.	4aa\	.
8D\J	.	.	[<8b\	[<8b\	.	.	.	.	.	.	.	.	.	.	.
!	!	!	!	!	!	!	!	!	!	!	!	!LO:LB:g=original	!	!	!
=18	=18	=18	=18	=18	=18	=18	=18	=18	=18	=18	=18	=18	=18	=18	=18
(8.E\L	x x 9	.	16b\LL]	16b\LL]	4E\	ter-	2G/	ter-	(4f#\	ter-	2.ryy	4r	.	4r	.
.	.	.	16ff#\	16ff#\	.	.	.	.	.	.	.	.	.	.	.
.	.	.	16ee\	16ee\	.	.	.	.	.	.	.	.	.	.	.
32F#\LL	.	.	16dd\JJ	16dd\JJ	.	.	.	.	.	.	.	.	.	.	.
32G\JJJ)	.	.	.	.	.	.	.	.	.	.	.	.	.	.	.
8C#\L	x 6 5	.	8ee\	8ee\	(4C#/	-ra	.	.	4e\)	.	.	4ee\	.	4gg\	.
8E\	.	.	4cc#\	4cc#\	.	.	.	.	.	.	.	.	.	.	.
8AA\	.	.	.	.	4AA/)	.	4G/	-ra	4e\	-ra	.	4ee\	.	4gg\	.
!	!	!	!	!LO:SIC:v:s=8a/	!	!	!	!	!	!	!	!	!	!	!
8C#\J	.	.	8a/	8f#/	.	.	.	.	.	.	.	.	.	.	.
!	!	!	!LO:LB:g=original	!	!LO:LB:g=original	!	!	!	!	!	!	!	!	!	!
=19	=19	=19	=19	=19	=19	=19	=19	=19	=19	=19	=19	=19	=19	=19	=19
8D\L	.	.	4a/	[<2.ff#\	8D\L	glo-	4.F#/	glo-	4.d\	glo-	2.ryy	4r	.	4r	.
16E\L	.	.	.	.	16E\L	.	.	.	.	.	.	.	.	.	.
16F#\JJ	.	.	.	.	16F#\JJ	.	.	.	.	.	.	.	.	.	.
16G\LL	.	.	[2ddM\	.	16G\LL	.	.	.	.	.	.	4dd\	.	4ff#\	.
16A\	.	.	.	.	16A\	.	.	.	.	.	.	.	.	.	.
16B\	.	.	.	.	16B\	.	8F#/	-ri-	8d\	-ri-	.	.	.	.	.
16c#\JJ	.	.	.	.	16c#\JJ	.	.	.	.	.	.	.	.	.	.
!LO:TX:t=P:problem=mixed beam	!	!	!	!	!	!	!	!	!	!	!	!	!	!	!
8d\L	.	.	.	.	8d\	.	4F#/	-a	4d\	-a	.	4dd\	.	4ff#\	.
8FF#/J	x x 6	.	.	.	16F#\	-ri-	.	.	.	.	.	.	.	.	.
.	.	.	.	.	16F#\	-a	.	.	.	.	.	.	.	.	.
!LO:LB:g=original	!	!	!	!LO:LB:g=original	!	!	!	!	!	!	!	!	!	!	!
=20	=20	=20	=20	=20	=20	=20	=20	=20	=20	=20	=20	=20	=20	=20	=20
!	!	!	!	!LO:TX:t=P:problem=brak zakończenia łuku	!	!	!	!	!	!	!	!	!	!	!
2.G#X\	x x 26	.	4dd\]	8ff#\]	4G#X\	tu-	4F#/	tu-	4d\	tu-	2.ryy	4dd\	.	4ff#\	.
!	!	!	!	!LO:TUP:a:problem=klamra łukowa	!	!	!	!	!	!	!	!	!	!	!
.	.	.	.	24dd\LL	.	.	.	.	.	.	.	.	.	.	.
.	.	.	.	24ee\	.	.	.	.	.	.	.	.	.	.	.
.	.	.	.	24ff#\JJ	.	.	.	.	.	.	.	.	.	.	.
.	.	.	4b\	8ee\L	4G#\	-a	4E/	-a	4e\	-a	.	4ee\	.	4ee\	.
.	.	.	.	8b\	.	.	.	.	.	.	.	.	.	.	.
.	.	.	4e/	8cc#\	4r	.	4r	.	4r	.	.	4ee\	.	4ee\	.
.	.	.	.	8dd\J	.	.	.	.	.	.	.	.	.	.	.
=21	=21	=21	=21	=21	=21	=21	=21	=21	=21	=21	=21	=21	=21	=21	=21
*	*	*	*	*	*	*	*	*	*	*ij	*	*	*	*	*
8A\L	x 6 4	.	4a/	4cc#\	4A\	ple-	4e\	ple-	4a\	ple-	2.ryy	4a/	.	4ee\	.
8E\	.	.	.	.	.	.	.	.	.	.	.	.	.	.	.
8A\	.	.	4.aM/	4.cc#m\	4A\	-ni	4e\	-ni	4a\	-ni	.	8r	.	8r	.
8E\	.	.	.	.	.	.	.	.	.	.	.	8ee\L	.	8ee\L	.
*	*	*	*	*	*	*	*	*ij	*	*	*	*	*	*	*
8A\	.	.	.	.	4A\	ſunt	4e\	ſunt	4a\	ſunt	.	8ee\	.	8ee\	.
8E\J	.	.	16g#X/LL	(16b\LL	.	.	.	.	.	.	.	8ee\J	.	8ee\J	.
.	.	.	16a/JJ	16cc#\JJ)	.	.	.	.	.	.	.	.	.	.	.
!	!	!	!	!	!	!	!	!	!	!	!	!	!	!LO:LB:g=original	!
=22	=22	=22	=22	=22	=22	=22	=22	=22	=22	=22	=22	=22	=22	=22	=22
8G#X\L	x 6 5	.	4b\	4dd\	4G#X\	Cae-	4e\	Cae-	4b\	Cae-	2.ryy	4ee\	.	4ee\	.
8E\	.	.	.	.	.	.	.	.	.	.	.	.	.	.	.
8G#\	.	.	4.bM\	4.ddM\	4G#\	-li	4e\	-li	4b\	-li	.	8r	.	8r	.
8E\	.	.	.	.	.	.	.	.	.	.	.	8ee\L	.	8ee\L	.
8G#\	.	.	.	.	4G#\	et	4e\	et	4b\	et	.	8ee\	.	8ee\	.
8E\J	.	.	16a\LL	(16cc#\LL	.	.	.	.	.	.	.	8ee\J	.	8ee\J	.
.	.	.	16b\JJ	16dd\JJ)	.	.	.	.	.	.	.	.	.	.	.
!	!	!	!	!	!	!	!	!	!LO:LB:g=original	!	!	!	!	!	!
=23	=23	=23	=23	=23	=23	=23	=23	=23	=23	=23	=23	=23	=23	=23	=23
!LO:TX:t=P:problem=mixed beam	!	!	!	!	!	!	!	!	!	!	!	!	!	!	!
8A\L	x x 3	.	8a/	8cc#\	2.A\	ter-	2.e\	ter-	2.a\	.	2.ryy	4ee\	.	4ee\	.
*	*	*	*	*	*	*	*	*Xij	*	*	*	*	*	*	*
8E\	.	.	4a/	4cc#\	.	.	.	.	.	.	.	.	.	.	.
8A\	.	.	.	.	.	.	.	.	.	.	.	4r	.	4r	.
8E\	.	.	4cc#/	4aa\	.	.	.	.	.	.	.	.	.	.	.
8A\	.	.	.	.	.	.	.	.	.	.	.	4r	.	4r	.
8AA/J	.	.	8a/	8cc#\	.	.	.	.	.	.	.	.	.	.	.
!	!	!	!	!	!	!	!LO:LB:g=original	!	!	!	!	!	!	!	!
=24	=24	=24	=24	=24	=24	=24	=24	=24	=24	=24	=24	=24	=24	=24	=24
!LO:TX:t=P:problem=mixed beam	!	!	!	!	!	!	!	!	!	!	!	!	!	!	!
8E\L	x 6 4	.	4a/	4cc#m\	2E\	-ra	2e\	-ra	4a\	ter-	2.ryy	8r	.	8r	.
8EE/	.	.	.	.	.	.	.	.	.	.	.	16ee\LL	.	16ee\LL	.
.	.	.	.	.	.	.	.	.	.	.	.	16ee\JJ	.	16ee\JJ	.
8E\	.	.	4g#X/	4b\	.	.	.	.	4g#X\	-ra	.	8ee\L	.	8ee\L	.
*	*	*	*	*	*	*	*	*	*	*Xij	*	*	*	*	*
8EE/J	.	.	.	.	.	.	.	.	.	.	.	8ee\	.	8ee\	.
16E\LL	.	.	4r	4r	4r	.	4r	.	4r	.	.	8ee\	.	8ee\	.
16D\	.	.	.	.	.	.	.	.	.	.	.	.	.	.	.
16C#\	.	.	.	.	.	.	.	.	.	.	.	8ee\J	.	8ee\J	.
16BB\JJ	.	.	.	.	.	.	.	.	.	.	.	.	.	.	.
=25	=25	=25	=25	=25	=25	=25	=25	=25	=25	=25	=25	=25	=25	=25	=25
8AA/L	.	.	4a/	4cc#\	4A\	glo-	4e\	glo-	4.a\	glo-	2.ryy	4ee\	.	4ee\	.
8EE/	.	.	.	.	.	.	.	.	.	.	.	.	.	.	.
8AA/	.	.	2a/	2cc#m\	4A\	-ri-	4e\	-ri-	.	.	.	8r	.	8r	.
!	!	!	!	!	!	!	!	!	!	!	!	!LO:LB:g=original	!	!	!
8EE/	.	.	.	.	.	.	.	.	8a\	-ri-	.	8ee\L	.	8ee\L	.
8AA/	.	.	.	.	4A\	-a	4e\	-a	4a\	-a	.	8ee\	.	8ee\	.
8EE/J	.	.	.	.	.	.	.	.	.	.	.	8ee\J	.	8ee\J	.
!LO:LB:g=original	!	!	!	!	!LO:LB:g=original	!	!	!	!	!	!	!	!	!	!
=26	=26	=26	=26	=26	=26	=26	=26	=26	=26	=26	=26	=26	=26	=26	=26
8GG#X/L	x 6 5	.	4b/	4dd\	2G#X\	tu-	2e\	tu-	2b\	tu-	2.ryy	4ee\	.	4ee\	.
8EE/	.	.	.	.	.	.	.	.	.	.	.	.	.	.	.
8GG#/	.	.	2b/	2ddM\	.	.	.	.	.	.	.	8r	.	8r	.
8EE/	.	.	.	.	.	.	.	.	.	.	.	8ee\L	.	8ee\L	.
8GG#/	.	.	.	.	4G#\	-a	4e\	-a	4b\	-a	.	8ee\	.	8ee\	.
8EE/J	.	.	.	.	.	.	.	.	.	.	.	8ee\J	.	8ee\J	.
=27	=27	=27	=27	=27	=27	=27	=27	=27	=27	=27	=27	=27	=27	=27	=27
*	*	*	*	*	*	*ij	*	*	*	*ij	*	*	*	*	*
4AA/	.	.	4cc#\	8cc#\	4A\	glo-	(4e\	glo-	4.a\	glo-	2.ryy	4ee\	.	4ee\	.
.	.	.	.	4aa\	.	.	.	.	.	.	.	.	.	.	.
4BB/	x x 6\	.	4dd\	.	4B\	-ri-	4d\)	.	.	.	.	4r	.	4r	.
.	.	.	.	16gg#X\LL	.	.	.	.	16g#X\LL	.	.	.	.	.	.
.	.	.	.	16ff#\JJ	.	.	.	.	16f#\JJ	.	.	.	.	.	.
4C#/	.	.	4ee\	8ee\L	4c#\	-a	4c#\	-ri-	4e\	-ri-	.	4r	.	4r	.
*	*	*	*	*	*	*Xij	*	*	*	*	*	*	*	*	*
.	.	.	.	8a\J	.	.	.	.	.	.	.	.	.	.	.
=28	=28	=28	=28	=28	=28	=28	=28	=28	=28	=28	=28	=28	=28	=28	=28
4D\	.	.	4ff#\	8ff#\	4d\	tu-	4B\	-a	4f#\	-a	2.ryy	4r	.	4r	.
*	*	*	*	*	*	*	*	*	*	*Xij	*	*	*	*	*
.	.	.	.	4a/	.	.	.	.	.	.	.	.	.	.	.
!	!	!	!	!	!	!	!	!	!LO:TX:t=P:global:problem=niejednoznaczny zapis ozdobnika [przyjęto mordent górny]	!	!	!	!	!	!
4E\	.	.	2bM/	.	(4e\	.	4A\	tu-	2eM\	tu-	.	8r	.	8r	.
.	.	.	.	8g#X/	.	.	.	.	.	.	.	8ee\L	.	8ee\L	.
4EE/	.	.	.	8b\L	4E\)	.	4G#X\	.	.	.	.	8ee\	.	8ee\	.
.	.	.	.	8dd\J	.	.	.	.	.	.	.	8ee\J	.	8ee\J	.
!	!	!	!	!LO:LB;g=original	!	!	!	!	!	!	!	!	!	!	!
=29	=29	=29	=29	=29	=29	=29	=29	=29	=29	=29	=29	=29	=29	=29	=29
4AA/	.	.	4cc#\	8cc#\	4A\	-a	4A/	-a	4e\	-a	2.ryy	4ee\	.	4ee\	.
.	.	.	.	4aa\	.	.	.	.	.	.	.	.	.	.	.
4BB/	.	.	4dd\	.	4r	.	4r	.	4r	.	.	4r	.	4r	.
.	.	.	.	16gg#X\LL	.	.	.	.	.	.	.	.	.	.	.
.	.	.	.	16ff#\JJ	.	.	.	.	.	.	.	.	.	.	.
!	!	!	!	!LO:TX:t=P:problem=mixed beam	!	!	!	!	!	!	!	!	!	!	!
4C#/	.	.	4ee\	8ee\L	4r	.	4r	.	4r	.	.	4r	.	4r	.
.	.	.	.	8a/J	.	.	.	.	.	.	.	.	.	.	.
!	!	!	!LO:LB:g=original	!	!	!	!	!	!LO:LB:g=original	!	!	!	!	!LO:LB:g=original	!
=30	=30	=30	=30	=30	=30	=30	=30	=30	=30	=30	=30	=30	=30	=30	=30
*	*	*	*	*	*	*ij	*	*ij	*	*	*	*	*	*	*
4D\	.	.	4ff#\	8ff#\	4D\	glo-	4d\	glo-	4a\	glo-	2.ryy	4r	.	4r	.
.	.	.	.	4a/	.	.	.	.	.	.	.	.	.	.	.
4E\	x x #	.	2bM/	.	4E\	-ri-	4B\	-ri-	4a\	-ri-	.	8r	.	8r	.
.	.	.	.	8g#X/	.	.	.	.	.	.	.	8ee\L	.	8ee\L	.
4EE/	.	.	.	8b\L	4E\	-a	4B\	-a	4g#X\	-a	.	8ee\	.	8ee\	.
.	.	.	.	8dd\J	.	.	.	.	.	.	.	8ee\J	.	8ee\J	.
=31	=31	=31	=31	=31	=31	=31	=31	=31	=31	=31	=31	=31	=31	=31	=31
!	!	!	!LO:TUP:a:problem=klamra łukowa	!	!	!	!	!	!	!	!	!	!	!	!
4AA/	.	.	12cc#\L	8cc#\L	4A\	tu-	2.e\	tu-	4a\	tu-	2.ryy	8ee\L	.	8ee\L	.
*	*	*	*	*	*	*	*	*Xij	*	*	*	*	*	*	*
.	.	.	12b\	.	.	.	.	.	.	.	.	.	.	.	.
.	.	.	.	16b\L	.	.	.	.	.	.	.	8ff#\J	.	8aa\J	.
.	.	.	12a\J	.	.	.	.	.	.	.	.	.	.	.	.
.	.	.	.	16a\JJ	.	.	.	.	.	.	.	.	.	.	.
4E\	x x #	.	2g#X/	2bM/	2E\	.	.	.	2g#Xm\	.	.	2eeM\	.	2gg#Xm\	.
4EE/	.	.	.	.	.	.	.	.	.	.	.	.	.	.	.
!	!	!	!	!	!	!	!LO:LB:g=original	!	!	!	!	!	!	!	!
=32	=32	=32	=32	=32	=32	=32	=32	=32	=32	=32	=32	=32	=32	=32	=32
4AA/	.	.	8a/L	8a/L	4AA/	-a	4e\	-a	4a\	-a	2.ryy	4ee\	.	4aa\	.
*	*	*	*	*	*	*Xij	*	*	*	*	*	*	*	*	*
.	.	.	16b/L	16b/L	.	.	.	.	.	.	.	.	.	.	.
.	.	.	16cc#/JJ	16cc#/JJ	.	.	.	.	.	.	.	.	.	.	.
4r	.	.	16dd\LL	16dd\LL	4r	.	4r	.	4r	.	.	4r	.	4r	.
.	.	.	16ee\	16ee\	.	.	.	.	.	.	.	.	.	.	.
.	.	.	16ff#\	16ff#\	.	.	.	.	.	.	.	.	.	.	.
.	.	.	16gg#X\JJ	16gg#X\JJ	.	.	.	.	.	.	.	.	.	.	.
!LO:TX:a:t=Solo	!	!LO:DY:b:Bi:t=pia	!LO:TX:t=P:problem=mixed beam	!LO:TX:t=P:problem=mixed beam	!	!	!	!	!	!	!	!	!	!	!
4c#\	.	p	8aa\L	8aa\L	4r	.	4r	.	4r	.	.	8r	.	8r	.
.	.	.	8a/J	8a/J	.	.	.	.	.	.	.	8a/	.	8ee\	.
!	!	!	!	!	!	!	!	!	!	!	!	!LO:LB:g=original	!	!	!
=33	=33	=33	=33	=33	=33	=33	=33	=33	=33	=33	=33	=33	=33	=33	=33
!	!	!	!	!	!LO:N:vis=00	!	!LO:N:vis=00	!	!LO:N:vis=00	!	!	!	!	!	!
4d\	.	.	8.ff#\L	8.ff#\L	0.r	.	0.r	.	0.r	.	2.ryy	4dd\	.	4ff#\	.
.	.	.	16dd\Jk	16dd\Jk	.	.	.	.	.	.	.	.	.	.	.
4c#\	x x 6	.	8ee\L	8ee\L	.	.	.	.	.	.	.	4aM/	.	4ee\	.
.	.	.	16a\L	16a\L	.	.	.	.	.	.	.	.	.	.	.
.	.	.	16cc#\JJ	16cc#\JJ	.	.	.	.	.	.	.	.	.	.	.
4A\	.	.	16ee\LL	16ee\LL	.	.	.	.	.	.	.	8r	.	8r	.
.	.	.	16cc#\	16cc#\	.	.	.	.	.	.	.	.	.	.	.
.	.	.	16aa\	16aa\	.	.	.	.	.	.	.	8a/	.	8ee\	.
.	.	.	16a\JJ	16a\JJ	.	.	.	.	.	.	.	.	.	.	.
!LO:LB:g=original	!	!	!	!	!	!	!	!	!	!	!	!	!	!	!
=34	=34	=34	=34	=34	=34	=34	=34	=34	=34	=34	=34	=34	=34	=34	=34
4d\	.	.	8.ff#\L	8.ff#\L	.	.	.	.	.	.	2.ryy	4ddM\	.	4ff#m\	.
.	.	.	16dd\Jk	16dd\Jk	.	.	.	.	.	.	.	.	.	.	.
4c#\	.	.	8ee\L	8ee\L	.	.	.	.	.	.	.	4a/	.	4ee\	.
.	.	.	16a\L	16a\L	.	.	.	.	.	.	.	.	.	.	.
.	.	.	16cc#\JJ	16cc#\JJ	.	.	.	.	.	.	.	.	.	.	.
4A\	.	.	16ee\LL	16ee\LL	.	.	.	.	.	.	.	8r	.	8r	.
.	.	.	16cc#\	16cc#\	.	.	.	.	.	.	.	.	.	.	.
.	.	.	16aa\	16aa\	.	.	.	.	.	.	.	8a/	.	8ee\	.
.	.	.	16a\JJ	16a\JJ	.	.	.	.	.	.	.	.	.	.	.
!	!	!	!	!LO:LB:g=original	!	!	!	!	!	!	!	!	!	!	!
=35	=35	=35	=35	=35	=35	=35	=35	=35	=35	=35	=35	=35	=35	=35	=35
!LO:SIC:v:s=4G#\	!	!	!	!	!	!	!	!	!	!	!	!	!	!	!
4G\	x 6 5	.	8.ee\L	8.ee\L	.	.	.	.	.	.	2.ryy	4ee\	.	4ee\	.
.	.	.	16b\Jk	16b\Jk	.	.	.	.	.	.	.	.	.	.	.
4E\	x 2 #	.	8.g#X/L	8.g#X/L	.	.	.	.	.	.	.	8ee\L	.	8ee\L	.
.	.	.	.	.	.	.	.	.	.	.	.	8ee\	.	8ee\	.
.	.	.	16e/Jk	16e/Jk	.	.	.	.	.	.	.	.	.	.	.
4G#X\	.	.	8.bb\L	8.bb\L	.	.	.	.	.	.	.	8ee\	.	8ee\	.
.	.	.	.	.	.	.	.	.	.	.	.	8ee\J	.	8ee\J	.
.	.	.	16dd\Jk	16dd\Jk	.	.	.	.	.	.	.	.	.	.	.
=36	=36	=36	=36	=36	=36	=36	=36	=36	=36	=36	=36	=36	=36	=36	=36
!LO:TX:t=P:problem=mixed beam	!	!	!	!	!	!	!	!	!	!	!	!	!	!	!
.	.	.	(<8qqdd/	(<8qqdd/	.	.	.	.	.	.	.	.	.	.	.
8.A\L	.	.	8.cc#\L)	8.cc#\L)	.	.	.	.	.	.	2.ryy	4a/	.	4ee\	.
16AA/Jk	.	.	16b\Jk	16b\Jk	.	.	.	.	.	.	.	.	.	.	.
8A\L	.	.	4a/	4.a/	.	.	.	.	.	.	.	4r	.	4r	.
8Gn\	.	.	.	.	.	.	.	.	.	.	.	.	.	.	.
8F#\	.	.	4r	.	.	.	.	.	.	.	.	4r	.	4r	.
8E\J	.	.	.	8r	.	.	.	.	.	.	.	.	.	.	.
!	!	!	!LO:LB:g=original	!	!	!	!	!	!	!	!	!	!	!LO:PB:g=original	!
=37	=37	=37	=37	=37	=37	=37	=37	=37	=37	=37	=37	=37	=37	=37	=37
8D\L	.	.	4ff#\	4aa\	4D\	ple-	4d\	ple-	4a\	ple-	2.ryy	4dd\	.	4dd\	.
16E\L	.	.	.	.	.	.	.	.	.	.	.	.	.	.	.
16F#\JJ	.	.	.	.	.	.	.	.	.	.	.	.	.	.	.
16G\LL	.	.	4ff#\	4aa\	4D\	-ni	4d\	-ni	4a\	-ni	.	4dd\	.	4dd\	.
16A\	.	.	.	.	.	.	.	.	.	.	.	.	.	.	.
16B\	.	.	.	.	.	.	.	.	.	.	.	.	.	.	.
16c#\JJ	.	.	.	.	.	.	.	.	.	.	.	.	.	.	.
!LO:TX:t=P:problem=mixed beam	!	!	!	!	!	!	!	!	!	!	!	!	!	!	!
8d\L	.	.	4ff#\	4aa\	4D\	ſunt	4d\	ſunt	4a\	ſunt	.	4dd\	.	4dd\	.
8D/J	.	.	.	.	.	.	.	.	.	.	.	.	.	.	.
!	!	!	!	!	!LO:LB:g=original	!	!	!	!	!	!	!	!	!	!
=38	=38	=38	=38	=38	=38	=38	=38	=38	=38	=38	=38	=38	=38	=38	=38
8.G\L	.	.	4ggM\	4bb\	4G\	Cae-	4d\	Cae-	4b\	Cae-	2.ryy	4dd\	.	4dd\	.
16B\Jk	.	.	.	.	.	.	.	.	.	.	.	.	.	.	.
!LO:TX:t=P:problem=mixed beam	!	!	!	!	!	!	!	!	!	!	!	!	!	!	!
8d\L	.	.	4ff#\	4aa\	4D\	-li	4d\	-li	4a\	-li	.	8r	.	8r	.
8D/	.	.	.	.	.	.	.	.	.	.	.	16dd\LL	.	16dd\LL	.
.	.	.	.	.	.	.	.	.	.	.	.	16dd\JJ	.	16dd\JJ	.
8F#/	.	.	8r	8r	8r	.	8r	.	8r	.	.	8dd\L	.	8dd\L	.
8D/J	.	.	8ff#\	8aa\	8D\	et	8d\	et	8a\	et	.	8dd\J	.	8dd\J	.
=39	=39	=39	=39	=39	=39	=39	=39	=39	=39	=39	=39	=39	=39	=39	=39
8.G\L	.	.	4ggM\	4bb\	4G\	ter-	4d\	ter-	4b\	ter-	2.ryy	4dd\	.	4dd\	.
16B\Jk	.	.	.	.	.	.	.	.	.	.	.	.	.	.	.
!LO:TX:t=P:problem=mixed beam	!	!	!	!	!	!	!	!	!	!	!	!	!	!	!
8d\L	.	.	4ff#\	4aa\	4D\	-ra	4d\	-ra	4a\	-ra	.	8r	.	8r	.
8D/	.	.	.	.	.	.	.	.	.	.	.	16dd\LL	.	16dd\LL	.
.	.	.	.	.	.	.	.	.	.	.	.	16dd\JJ	.	16dd\JJ	.
8F#/	.	.	8r	8r	4r	.	4r	.	4r	.	.	8dd\L	.	8dd\L	.
8D/J	.	.	8ff#\	8aa\	.	.	.	.	.	.	.	8ff#\J	.	8aa\J	.
!LO:LB:g=original	!	!	!	!	!	!	!	!	!	!	!	!LO:LB:g=original	!	!	!
=40	=40	=40	=40	=40	=40	=40	=40	=40	=40	=40	=40	=40	=40	=40	=40
4C#/	.	.	8ee\	8ggn\	4C#/	glo-	4A\	glo-	4g\	glo-	2.ryy	4ee\	.	4aa\	.
.	.	.	4ee\	4gg\	.	.	.	.	.	.	.	.	.	.	.
4AA/	.	.	.	.	4AA/	-ri-	4A\	-ri-	4g\	-ri-	.	2eeM\	.	2ggM\	.
.	.	.	8cc#\	16ee\LL	.	.	.	.	.	.	.	.	.	.	.
.	.	.	.	16cc#\JJ	.	.	.	.	.	.	.	.	.	.	.
!	!	!	!	!LO:TX:t=P:problem=mixed beam	!	!	!	!	!	!	!	!	!	!	!
4C#/	.	.	8a\L	8a/L	4C#/	-a	4A\	-a	4g\	-a	.	.	.	.	.
.	.	.	8ee\J	8gg\J	.	.	.	.	.	.	.	.	.	.	.
!	!	!	!	!	!	!	!	!	!LO:LB:g=original	!	!	!	!	!	!
=41	=41	=41	=41	=41	=41	=41	=41	=41	=41	=41	=41	=41	=41	=41	=41
4D\	.	.	8dd\L	16ff#\LL	4D/	tu-	4A\	tu-	4f#\	tu-	2.ryy	4dd\	.	4ff#\	.
.	.	.	.	16dd\	.	.	.	.	.	.	.	.	.	.	.
.	.	.	16ee\L	16ee\	.	.	.	.	.	.	.	.	.	.	.
.	.	.	16ff#\JJ	16ff#\JJ	.	.	.	.	.	.	.	.	.	.	.
4DD/	.	.	16gg\LL	16gg\LL	4D/	-a	4A\	-a	4f#\	-a	.	4r	.	4r	.
.	.	.	16aa\	16aa\	.	.	.	.	.	.	.	.	.	.	.
.	.	.	16bb\	16bb\	.	.	.	.	.	.	.	.	.	.	.
.	.	.	16ccc#\JJ	16ccc#\JJ	.	.	.	.	.	.	.	.	.	.	.
4r	.	.	8ddd\L	8ddd\L	4r	.	4r	.	4r	.	.	4r	.	4r	.
.	.	.	8aa\J	8aa\J	.	.	.	.	.	.	.	.	.	.	.
!	!	!	!	!	!	!	!LO:LB:g=original	!	!	!	!	!	!	!	!
=42	=42	=42	=42	=42	=42	=42	=42	=42	=42	=42	=42	=42	=42	=42	=42
*	*	*	*Xtuplet	*Xtuplet	*	*ij	*	*ij	*	*ij	*	*	*	*	*
!	!	!	!LO:TUP:a:problem=klamra łukowa	!	!	!	!	!	!	!	!	!	!	!	!
8.D\L	.	.	12ff#\L	12ff#\L	4D\	glo-	4A\	glo-	4f#\	glo-	2.ryy	8r	.	8r	.
.	.	.	12dd\	12dd\	.	.	.	.	.	.	.	.	.	.	.
.	.	.	.	.	.	.	.	.	.	.	.	16dd\LL	.	16dd\LL	.
.	.	.	12aa\J	12cccn\J	.	.	.	.	.	.	.	.	.	.	.
32F#\LL	.	.	.	.	.	.	.	.	.	.	.	16dd\JJ	.	16dd\JJ	.
32A\JJJ	.	.	.	.	.	.	.	.	.	.	.	.	.	.	.
8d\L	x x n2	.	[<2aaM\	[<2ccc\	4F#\	-ri-	4A\	-ri-	4f#\	-ri-	.	8dd\L	.	8dd\L	.
8F#\	.	.	.	.	.	.	.	.	.	.	.	8dd\	.	8dd\	.
8d\	.	.	.	.	4F#\	-a	4A\	-a	4f#\	-a	.	8dd\	.	8dd\	.
*	*	*	*	*	*	*Xij	*	*	*	*	*	*	*	*	*
8F#\J	.	.	.	.	.	.	.	.	.	.	.	8dd\J	.	8dd\J	.
!	!	!	!	!LO:LB:g=original	!	!	!	!	!	!	!	!	!	!	!
=43	=43	=43	=43	=43	=43	=43	=43	=43	=43	=43	=43	=43	=43	=43	=43
!LO:TX:t=P:problem=mixed beam	!	!	!LO:TUP:a:problem=klamra łukowa	!LO:TX:t=P:problem=brak zakończenia ligatury	!	!	!	!	!	!	!	!	!	!	!
8G\L	x x 98	.	12aa\L]	12cccnX\L]	4G\	tu-	4d\	tu-	(8f#\L	tu-	2.ryy	4dd\	.	4dd\	.
.	.	.	12ff#\	12aa\	.	.	.	.	.	.	.	.	.	.	.
8GG/	.	.	.	.	.	.	.	.	8g\J)	.	.	.	.	.	.
.	.	.	12gg\J	12bb\J	.	.	.	.	.	.	.	.	.	.	.
8BB/	.	.	8dd|/L	8gg|\L	4G\	-a	4d\	-a	4g\	-a	.	4r	.	4r	.
8D/J	.	.	8b|/	8dd|\	.	.	.	.	.	.	.	.	.	.	.
!	!	!	!LO:SIC:v:s=8g|/	!	!	!	!	!	!	!	!	!	!	!	!
8G\L	.	.	8f#|/	8b|\	4r	.	4r	.	4r	.	.	4r	.	4r	.
8B\J	.	.	8d|/J	8g|\J	.	.	.	.	.	.	.	.	.	.	.
=44	=44	=44	=44	=44	=44	=44	=44	=44	=44	=44	=44	=44	=44	=44	=44
!	!	!	!LO:TUP:a:problem=klamra łukowa	!	!	!	!	!	!	!	!	!	!	!	!
8.E\L	x x #	.	12gg#\L	12bb\L	4E\	glo-	4B\	glo-	4g#X\	glo-	2.ryy	8r	.	8r	.
.	.	.	12ee\	12ee\	.	.	.	.	.	.	.	.	.	.	.
.	.	.	.	.	.	.	.	.	.	.	.	16ee\LL	.	16ee\LL	.
.	.	.	12bb\J	12ddd\J	.	.	.	.	.	.	.	.	.	.	.
32G#X\LL	.	.	.	.	.	.	.	.	.	.	.	16ee\JJ	.	16ee\JJ	.
32B\JJJ	.	.	.	.	.	.	.	.	.	.	.	.	.	.	.
8e\L	x x #2	.	[2bb\	[<2ddd\	4G#X\	-ri-	4B\	-ri-	4g#\	-ri-	.	8ee\L	.	8ee\L	.
8G#X\	.	.	.	.	.	.	.	.	.	.	.	8ee\	.	8ee\	.
8e\	.	.	.	.	4G#\	-a	4B\	-a	4g#\	-a	.	8ee\	.	8ee\	.
8G#\J	.	.	.	.	.	.	.	.	.	.	.	8ee\J	.	8ee\J	.
!	!	!	!LO:LB:g=original	!	!	!	!	!	!	!	!	!	!	!LO:LB:g=original	!
=45	=45	=45	=45	=45	=45	=45	=45	=45	=45	=45	=45	=45	=45	=45	=45
!	!	!	!LO:TX:t=P:problem=brak zakończenia ligatury	!	!	!	!	!	!	!	!	!	!	!	!
!LO:TX:t=P:problem=mixed beam	!	!	!LO:TUP:a:problem=klamra łukowa	!LO:TUP:a:problem=klamra łukowa	!	!	!	!	!LO:SIC:v:s=8g#	!	!	!	!	!	!
8A\L	x x 98	.	12bb\L]	12ddd\L]	4A\	tu-	4e\	tu-	(8g\L	tu-	2.ryy	4a/	.	4ee\	.
.	.	.	12gg#X\	12bb\	.	.	.	.	.	.	.	.	.	.	.
8AA/	.	.	.	.	.	.	.	.	8a\J)	.	.	.	.	.	.
.	.	.	12aa\J	12ccc#X\J	.	.	.	.	.	.	.	.	.	.	.
8C#/	.	.	8ee|\L	8aa|\L	4A\	-a	4e\	-a	4a\	-a	.	2r	.	4r	.
*	*	*	*	*	*	*Xij	*	*Xij	*	*Xij	*	*	*	*	*
8E/J	.	.	8cc#|\J	8ee|\	.	.	.	.	.	.	.	.	.	.	.
8A\L	.	.	8a|/L	8cc#|\	4r	.	4r	.	4r	.	.	.	.	4r	.
8c#\J	.	.	8e|/J	8a|\J	.	.	.	.	.	.	.	.	.	.	.
!LO:LB:g=original	!	!	!	!	!LO:PB:g=original	!	!	!	!	!	!	!	!	!	!
=46	=46	=46	=46	=46	=46	=46	=46	=46	=46	=46	=46	=46	=46	=46	=46
8d\L	.	.	4dd\	4ff#\	4d\	pl-	4d\	ple-	4a\	ple-	2.ryy	4dd\	.	4ff#\	.
8A\	.	.	.	.	.	.	.	.	.	.	.	.	.	.	.
8d\	.	.	4.ddM\	4.ff#m\	4d\	-eni	4d\	-ni	4a\	-ni	.	2ddM\	.	4.ff#m\	.
8A\	.	.	.	.	.	.	.	.	.	.	.	.	.	.	.
8d\	.	.	.	.	4d\	ſunt	4d\	ſunt	4a\	ſunt	.	.	.	.	.
8A\J	.	.	(16cc#\LL	(16ee\LL	.	.	.	.	.	.	.	.	.	(16ee\LL	.
.	.	.	16dd\JJ)	16ff#\JJ)	.	.	.	.	.	.	.	.	.	16ff#\JJ)	.
=47	=47	=47	=47	=47	=47	=47	=47	=47	=47	=47	=47	=47	=47	=47	=47
8c#\L	x 6 5	.	4ee\	4gg\	4c#\	Cae-	4e\	Cae-	4a\	Cae-	2.ryy	4ee\	.	4gg\	.
8A\	.	.	.	.	.	.	.	.	.	.	.	.	.	.	.
8c#\	.	.	4.eeM\	4.ggM\	4c#\	-li	4e\	-li	4a\	-li	.	2eeM\	.	2ggM\	.
8A\	.	.	.	.	.	.	.	.	.	.	.	.	.	.	.
8c#\	.	.	.	.	4c#\	et	4e\	et	4a\	et	.	.	.	.	.
8A\J	.	.	(16dd\LL	(16ff#\LL	.	.	.	.	.	.	.	.	.	.	.
.	.	.	16ee\JJ)	16gg\JJ)	.	.	.	.	.	.	.	.	.	.	.
!	!	!	!	!	!	!	!	!	!LO:LB:g=original	!	!	!LO:PB:g=original	!	!	!
=48	=48	=48	=48	=48	=48	=48	=48	=48	=48	=48	=48	=48	=48	=48	=48
!	!	!	!	!	!	!	!LO:TX:t=P:global:problem=niejednoznaczny zapis ozdobnika [przyjęto mordent górny]	!	!	!	!	!	!	!	!
8d\L	.	.	8dd\	8ff#\	2.d\	ter-	[2.dM\	ter-	2.a\	ter-	2.ryy	4dd\	.	4ff#\	.
8A\	.	.	4dd\	4ff#\	.	.	.	.	.	.	.	.	.	.	.
8d\	.	.	.	.	.	.	.	.	.	.	.	8r	.	8r	.
8A\J	.	.	4ff#\	4ddd\	.	.	.	.	.	.	.	8dd\L	.	8ff#\L	.
!LO:TX:t=P:problem=mixed beam	!	!	!	!	!	!	!	!	!	!	!	!	!	!	!
8d\L	.	.	.	.	.	.	.	.	.	.	.	8dd\	.	8ff#\	.
8D/J	.	.	8dd\	8ff#\	.	.	.	.	.	.	.	8dd\J	.	8ff#\J	.
=49	=49	=49	=49	=49	=49	=49	=49	=49	=49	=49	=49	=49	=49	=49	=49
!LO:TX:t=P:problem=mixed beam	!	!	!	!	!	!	!	!	!	!	!	!	!	!	!
8A\L	x 6 4	.	4ddM\	4ff#\	2A\	-ra	4d\]	.	4a\	-ra	2.ryy	4dd\	.	4ff#m\	.
8AA/	x 5 4	.	.	.	.	.	.	.	.	.	.	.	.	.	.
8A\	.	.	4cc#\	4ee\	.	.	4c#\	-ra	4r	.	.	4a/	.	4ee\	.
8AA/J	.	.	.	.	.	.	.	.	.	.	.	.	.	.	.
16A\LL	.	.	4r	4r	4r	.	4r	.	4r	.	.	4r	.	4r	.
16G\	.	.	.	.	.	.	.	.	.	.	.	.	.	.	.
16F#\	.	.	.	.	.	.	.	.	.	.	.	.	.	.	.
16E\JJ	.	.	.	.	.	.	.	.	.	.	.	.	.	.	.
!	!	!	!	!LO:LB:g=original	!	!	!LO:LB:g=original	!	!	!	!	!	!	!	!
=50	=50	=50	=50	=50	=50	=50	=50	=50	=50	=50	=50	=50	=50	=50	=50
!	!	!	!	!	!	!	!	!	!	!	!	!	!LO:DY:b:Bi:t=pia	!	!LO:DY:b:Bi:t=pia
8D/L	.	.	4dd\	4ff#\	4.D/	glo-	4.d\	glo-	4.a\	glo-	2.ryy	4dd\	p	4ff#\	p
8AA/	.	.	.	.	.	.	.	.	.	.	.	.	.	.	.
8D/	.	.	2ddM\	4.ff#m\	.	.	.	.	.	.	.	2ddM\	.	2ff#m\	.
8AA/	.	.	.	.	8D/	-ri-	8d\	-ri-	8a\	-ri-	.	.	.	.	.
8D/	.	.	.	.	4D/	-a	4d\	-a	4a\	-a	.	.	.	.	.
8AA/J	.	.	.	(16ee\LL	.	.	.	.	.	.	.	.	.	.	.
.	.	.	.	16ff#\JJ)	.	.	.	.	.	.	.	.	.	.	.
=51	=51	=51	=51	=51	=51	=51	=51	=51	=51	=51	=51	=51	=51	=51	=51
!	!	!	!	!	!	!	!	!	!	!	!	!	!	!	!LO:DY:b:Bi:t=pia
8C#/L	x 6 5	.	4ee\	4gg\	2C#/	tu-	2e\	tu-	2a\	tu-	2.ryy	4ee\	.	4gg\	p
8AA/	.	.	.	.	.	.	.	.	.	.	.	.	.	.	.
8C#/	.	.	2eeM\	4.ggM\	.	.	.	.	.	.	.	2eeM\	.	2ggM\	.
8AA/	.	.	.	.	.	.	.	.	.	.	.	.	.	.	.
8C#/	.	.	.	.	4C#/	-a	4e\	-a	4a\	-a	.	.	.	.	.
8AA/J	.	.	.	(16ff#\LL	.	.	.	.	.	.	.	.	.	.	.
.	.	.	.	16gg\JJ)	.	.	.	.	.	.	.	.	.	.	.
!LO:LB:g=original	!	!	!	!	!	!	!	!	!	!	!	!	!	!	!
=52	=52	=52	=52	=52	=52	=52	=52	=52	=52	=52	=52	=52	=52	=52	=52
*	*	*	*	*	*	*ij	*	*ij	*	*ij	*	*	*	*	*
4D\	.	.	4ff#\	8ff#\	4D\	glo-	4d\	glo-	(4a\	glo-	2.ryy	4dd\	.	4ff#\	.
.	.	.	.	4ddd\	.	.	.	.	.	.	.	.	.	.	.
4E\	.	.	4gg\	.	4E\	-ri-	8c#\L	-ri-	4g\)	.	.	4r	.	4r	.
.	.	.	.	16ccc#\LL	.	.	8B\J	.	.	.	.	.	.	.	.
.	.	.	.	16bb\JJ	.	.	.	.	.	.	.	.	.	.	.
4F#\	.	.	4aa\	8aa\L	4F#\	-a	4A\	-a	4f#\	-ri-	.	4r	.	4r	.
*	*	*	*	*	*	*Xij	*	*Xij	*	*	*	*	*	*	*
.	.	.	.	8dd\J	.	.	.	.	.	.	.	.	.	.	.
=53	=53	=53	=53	=53	=53	=53	=53	=53	=53	=53	=53	=53	=53	=53	=53
!	!	!	!	!	!	!	!	!	!	!	!	!LO:TX:a:t=1	!	!LO:TX:a:t=1	!
4G\	.	.	4gg\	8bb\	4G\	tu-	4B\	tu-	4e\	-a	2.ryy	2.r	.	2.r	.
*	*	*	*	*	*	*	*	*	*	*	*	*	*	*	*
.	.	.	.	4dd\	.	.	.	.	.	.	.	.	.	.	.
4A\	.	.	2eeM\	.	(4A\	.	2AM/	.	2eM\	tu-	.	.	.	.	.
*	*	*	*	*	*	*	*	*	*	*Xij	*	*	*	*	*
!	!	!	!	!LO:N:vis=8.	!	!	!	!	!	!	!	!	!	!	!
.	.	.	.	4cc#\	.	.	.	.	.	.	.	.	.	.	.
4AA/	.	.	.	.	4AA/)	.	.	.	.	.	.	.	.	.	.
.	.	.	.	16ee\LL	.	.	.	.	.	.	.	.	.	.	.
.	.	.	.	16gg\JJ	.	.	.	.	.	.	.	.	.	.	.
!	!	!	!LO:LB:g=original	!	!	!	!	!	!	!	!	!	!	!LO:LB:g=original	!
=54	=54	=54	=54	=54	=54	=54	=54	=54	=54	=54	=54	=54	=54	=54	=54
4D\	.	.	4ff#\	8ff#\	4D\	-a	4A/	-a	4f#\	-a	2.ryy	8r	.	8r	.
.	.	.	.	4ddd\	.	.	.	.	.	.	.	8ff#\	.	8aa\	.
.	.	.	.	.	.	.	.	.	.	.	.	.	.	(<8qaa/	.
4E\	.	.	4gg\	.	4r	.	4r	.	4r	.	.	4ee\	.	4gg\)	.
.	.	.	.	16ccc#\LL	.	.	.	.	.	.	.	.	.	.	.
.	.	.	.	16bb\JJ	.	.	.	.	.	.	.	.	.	.	.
4F#\	.	.	4aa\	8aa\L	4r	.	4r	.	4r	.	.	4dd\	.	4ff#\	.
.	.	.	.	8dd\J	.	.	.	.	.	.	.	.	.	.	.
!	!	!	!	!	!LO:LB:g=original	!	!	!	!	!	!	!	!	!	!
=55	=55	=55	=55	=55	=55	=55	=55	=55	=55	=55	=55	=55	=55	=55	=55
*	*	*	*	*	*	*ij	*	*ij	*	*ij	*	*	*	*	*
4G\	.	.	8bb\L	8bb\	4G\	glo-	4B\	glo-	4g\	glo-	2.ryy	4dd\	.	8.bb\L	.
.	.	.	8gg\J	4dd\	.	.	.	.	.	.	.	.	.	.	.
.	.	.	.	.	.	.	.	.	.	.	.	.	.	16gg\Jk	.
4A\	.	.	4ee\	.	4A\	-ri-	4A\	-ri-	4e\	-ri-	.	4.a/	.	4.ee\	.
.	.	.	.	8cc#\	.	.	.	.	.	.	.	.	.	.	.
4AA/	.	.	4cc#\	8ee\L	4A\	-a	4A\	-a	4e\	-a	.	.	.	.	.
*	*	*	*	*	*	*Xij	*	*	*	*	*	*	*	*	*
.	.	.	.	8gg\J	.	.	.	.	.	.	.	8ee\	.	16ff#\LL	.
.	.	.	.	.	.	.	.	.	.	.	.	.	.	16gg\JJ	.
!	!	!	!	!	!	!	!	!	!LO:LB:g=original	!	!	!	!	!	!
=56	=56	=56	=56	=56	=56	=56	=56	=56	=56	=56	=56	=56	=56	=56	=56
*	*	*	*	*tuplet	*	*	*	*	*	*	*	*	*	*	*
!	!	!	!	!LO:TUP:a:problem=klamra łukowa	!	!	!	!	!	!	!	!	!	!LO:TUP:a:problem=klamra łukowa	!
4D\	.	.	4dd\	12ff#\L	4D\	tu-	2.AM/	tu-	4f#\	tu-	2.ryy	4dd\	.	12ff#\L	.
*	*	*	*	*	*	*	*	*	*	*Xij	*	*	*	*	*
.	.	.	.	12ee\	.	.	.	.	.	.	.	.	.	12ee\	.
.	.	.	.	12dd\J	.	.	.	.	.	.	.	.	.	12dd\J	.
4A\	.	.	2cc#m\	2eeM\	(4A\	.	.	.	2eM\	.	.	8a/L	.	2eeM\	.
.	.	.	.	.	.	.	.	.	.	.	.	8a/	.	.	.
4AA/	.	.	.	.	4AA/)	.	.	.	.	.	.	8a/	.	.	.
.	.	.	.	.	.	.	.	.	.	.	.	8a/J	.	.	.
!	!	!	!	!LO:LB:g=original	!	!	!	!	!	!	!	!LO:LB:g=original	!	!	!
=57	=57	=57	=57	=57	=57	=57	=57	=57	=57	=57	=57	=57	=57	=57	=57
!	!	!	!LO:TX:t=P:problem=mixed beam	!LO:TX:t=P:problem=mixed beam	!	!	!	!	!	!	!	!	!	!	!
8D\L	.	.	16dd\LL	16dd\LL	4D/	-a	4A/	-a	4f#\	-a	2.ryy	4f#/	.	4dd\	.
*	*	*	*	*	*	*	*	*Xij	*	*	*	*	*	*	*
.	.	.	16d/	16d/	.	.	.	.	.	.	.	.	.	.	.
16E\L	.	.	16e/	16e/	.	.	.	.	.	.	.	.	.	.	.
16F#\JJ	.	.	16f#/JJ	16f#/JJ	.	.	.	.	.	.	.	.	.	.	.
16G\LL	.	.	16g/LL	16g/LL	4r	.	4r	.	4r	.	.	4r	.	4r	.
16A\	.	.	16a/	16a/	.	.	.	.	.	.	.	.	.	.	.
16B\	.	.	16b/	16b/	.	.	.	.	.	.	.	.	.	.	.
16c#\JJ	.	.	16cc#/JJ	16cc#/JJ	.	.	.	.	.	.	.	.	.	.	.
!LO:TX:t=P:problem=mixed beam	!	!	!LO:TX:t=P:problem=mixed beam	!LO:TX:t=P:problem=mixed beam	!	!	!	!	!	!	!	!	!	!	!
8d\L	.	.	8dd\L	8dd\L	4r	.	4r	.	4r	.	.	4r	.	4r	.
8D/J	.	.	8d/J	8d/J	.	.	.	.	.	.	.	.	.	.	.
=58	=58	=58	=58	=58	=58	=58	=58	=58	=58	=58	=58	=58	=58	=58	=58
!	!	!	!	!	!LO:N:vis=00	!	!LO:N:vis=00	!	!LO:N:vis=00	!	!	!LO:N:vis=00	!	!LO:N:vis=00	!
8.G\L	.	.	8.g/L	8.g/L	0.r	.	0.r	.	0.r	.	2.ryy	0.r	.	0.r	.
16B\Jk	.	.	16b/Jk	16b/Jk	.	.	.	.	.	.	.	.	.	.	.
!LO:TX:t=P:problem=mixed beam	!	!	!LO:TX:t=P:problem=mixed beam	!LO:TX:t=P:problem=mixed beam	!	!	!	!	!	!	!	!	!	!	!
8d\L	.	.	8dd\L	8dd\L	.	.	.	.	.	.	.	.	.	.	.
8D/	.	.	8d/	8d/	.	.	.	.	.	.	.	.	.	.	.
8F#/	.	.	8f#/	8f#/	.	.	.	.	.	.	.	.	.	.	.
8D/J	.	.	8d/J	8d/J	.	.	.	.	.	.	.	.	.	.	.
!LO:LB:g=original	!	!	!	!	!	!	!	!	!	!	!	!	!	!	!
=59	=59	=59	=59	=59	=59	=59	=59	=59	=59	=59	=59	=59	=59	=59	=59
8.G\L	.	.	8.g/L	8.g/L	.	.	.	.	.	.	2.ryy	.	.	.	.
16B\Jk	.	.	16b/Jk	16b/Jk	.	.	.	.	.	.	.	.	.	.	.
!LO:TX:t=P:problem=mixed beam	!	!	!LO:TX:t=P:problem=mixed beam	!LO:TX:t=P:problem=mixed beam	!	!	!	!	!	!	!	!	!	!	!
8d\L	.	.	8dd\L	8dd\L	.	.	.	.	.	.	.	.	.	.	.
8D/	.	.	8d/	8d/	.	.	.	.	.	.	.	.	.	.	.
8F#/	.	.	8f#/	8f#/	.	.	.	.	.	.	.	.	.	.	.
8D/J	.	.	8d/J	8d/J	.	.	.	.	.	.	.	.	.	.	.
=60	=60	=60	=60	=60	=60	=60	=60	=60	=60	=60	=60	=60	=60	=60	=60
8.G\L	.	.	8.g/L	8.g/L	.	.	.	.	.	.	2.ryy	.	.	.	.
16G#X\Jk	.	.	16g#X/Jk	16g#X/Jk	.	.	.	.	.	.	.	.	.	.	.
4A\	.	.	4a/	4a/	.	.	.	.	.	.	.	.	.	.	.
4AA/	.	.	4A/	4A/	.	.	.	.	.	.	.	.	.	.	.
=61	=61	=61	=61	=61	=61	=61	=61	=61	=61	=61	=61	=61	=61	=61	=61
4D\	.	.	4d/	4d/	.	.	.	.	.	.	2.ryy	.	.	.	.
4r	.	.	4r	4r	.	.	.	.	.	.	.	.	.	.	.
!	!	!	!	!LO:TX:a:t=51	!	!	!	!	!	!	!	!	!	!	!
4r	.	.	4r	4r	.	.	.	.	.	.	.	.	.	.	.
==	==	==	==	==	==	==	==	==	==	==	==	==	==	==	==
*-	*-	*-	*-	*-	*-	*-	*-	*-	*-	*-	*-	*-	*-	*-	*-
!!!system-decoration: [g1][g2][g3]g4
!!!RDF**kern: | = vertical stroke
!!!RDF**kern: > = above
!!!RDF**kern: < = below
!!!ENC: Katarzyna Serwa
!!!END: 2022-01-08
!!!ENC: Andrzej Kubiczek
!!!END: 2020-12-20
